resources/haticons/SVG/directions_bus.svg

<!-- Generated by IcoMoon.io -->
<svg version="1.1" xmlns="http://www.w3.org/2000/svg" width="24" height="24" viewBox="0 0 24 24">
<title>directions_bus</title>
<path d="M18 11.016v-5.016h-12v5.016h12zM16.5 17.016q0.656 0 1.078-0.445t0.422-1.055-0.422-1.055-1.078-0.445-1.078 0.445-0.422 1.055 0.422 1.055 1.078 0.445zM7.5 17.016q0.656 0 1.078-0.445t0.422-1.055-0.422-1.055-1.078-0.445-1.078 0.445-0.422 1.055 0.422 1.055 1.078 0.445zM3.984 15.984v-9.984q0-2.391 2.063-3.188t5.953-0.797 5.953 0.797 2.063 3.188v9.984q0 1.313-1.031 2.25v1.781q0 0.422-0.281 0.703t-0.703 0.281h-0.984q-0.422 0-0.727-0.281t-0.305-0.703v-1.031h-7.969v1.031q0 0.422-0.305 0.703t-0.727 0.281h-0.984q-0.422 0-0.703-0.281t-0.281-0.703v-1.781q-1.031-0.938-1.031-2.25z"></path>
</svg>

<svg xmlns="http://www.w3.org/2000/svg" width="24" height="24"><path d="M18 11.016V6H6v5.016h12zm-1.5 6q.656 0 1.078-.445T18 15.516t-.422-1.055-1.078-.445-1.078.445T15 15.516t.422 1.055 1.078.445zm-9 0q.656 0 1.078-.445T9 15.516t-.422-1.055-1.078-.445-1.078.445T6 15.516t.422 1.055 1.078.445zm-3.516-1.032V6q0-2.391 2.063-3.188T12 2.015t5.953.797T20.016 6v9.984q0 1.313-1.031 2.25v1.781q0 .422-.281.703t-.703.281h-.984q-.422 0-.727-.281t-.305-.703v-1.031H8.016v1.031q0 .422-.305.703t-.727.281H6q-.422 0-.703-.281t-.281-.703v-1.781q-1.031-.938-1.031-2.25z"/></svg>
